X:58
T:Kadril van Diest
C:Traditioneel
O:Vlaanderen
Z:Bert Van Vreckem <http://flanders.blackmill.net/music/>
M:C|
L:1/4
K:C
T:I
P:Intro
ee!trill!G ^F/G/|cc e/^d/e/f/|dd B/G/B/d/|czcz||
P:A
!segno!"C"ee!trill!G ^F/G/|cc e/^d/e/f/|"G7"dd B/G/B/d/|"C"ccg2|\
ee!trill!G ^F/G/|cc e/^d/e/f/|"G7"dd B/G/B/d/|"C"czcz||
P:B
[K:Am]"Am"ABcA|e/^d/e/f/ e A/c/|"E7"Be e/d/c/B/|"Am"cBAE|\
ABcA|"Dm"f2-f d|"E7"edcB|"Am"AzG2||
P:C
[K:C]"C"eeG ^F/G/|cc e/^d/e/f/|"G7"dd B/G/B/d/|"C"ccg2|\
eeG ^F/G/|cc e/^d/e/f/|"G7"dd B/G/B/d/|"C"czcz||
P:D
[K:F]"F"f2 e>d|cBA2|"Bb"d2 c>B|"F"AGFA|\
"C7"Gccc|c2-cd|ecde|"F"fzfz!segno!|]
%
T:II
K:C
P:Intro
E>E G/C/E/G/|cB EA|GD/E/ F/G/A/B/|cz cz||
P:A
|:!segno!"C"E>E G/C/E/G/|cG EA|"G"GD/E/ F/G/A/B/|AG EC|\
"C"E>E G/C/E/G/|cG EA|"G7"GD/E/ F/G/A/B/|"C"cz cz:|
P:B
|:"C"E>^D E>^D|EC G,C|E>^D EA|\
[1G2- Gc|"G7"BD EF|B2- BA|"C"AG CD|Ez"G7"Gz:|
[2"G"G2- GG|GD GA|Bd/B/ GB|"D7"AE ^FD|"G"GG/G/ GG||
P:C
"C"E>E G/C/E/G/|cG EA|"G"GD/E/ F/G/A/B/|AG EC|\
"C"E>E G/C/E/G/|cG EA|"G"GD/E/ F/G/A/B/|"C"cz cz!segno!|]
%
T:III
M:6/8
L:1/8
P:Intro
c2d edc|a2^f g2e|def GAB|c2zc2z||
P:A
!segno!"C"c2d edc|a2^f g2e|c2d edc|"G7"B2c d2G|\
"C"c2d edc|a2^f g2e|"G7"def GAB|"C"c2zc2z||
P:B
K:G
"G"B2d e2g|"D7"f3- f2A|B2d f2e|"G"e2d B2B|\
A2B gfe|"D7"B2d fed|cde dcA|"G"G3- Gzz||
P:C
K:C
"C"c2d edc|a2^f g2e|c2d edc|"G"B2c d2G|\
"C"c2d edc|a2^f g2e|"G7"def GAB|"C"c2zc2z||
P:D
K:F
"F"f3 e2A|d3 c2A|FEF AcA|"C7"G2c c2c|\
"Bb"d2e gfd|"F"c2f afd|"C7"c=Bc ^cde|"F"f2z f2z!segno!|]
%
T:IV
M:2/4
L:1/8
K:C
P:Intro
E^D EG|AG E2|G^G AB|cz cz||
P:A
|:!segno!"C"E^D EG|AG E2|CB, CE|"G"D3D|\
FE FG|BA F2|[1"G7"D^C DF|DG/G/ GG:|[2"G7"G^G AB|"C"cz cz!fine!||
P:B
K:F
"F"F2 A>B|c2 d>e|fe fg|a2 f2|"C7"ef gf|ec de|"F"fe fa|"C7"gc/c/ cc|
"F"F2 A>B|c2 d>e|fe dc|"Bb"d2 z2|d2 g>f|"F"cA cf|"C7"gc de|"F"fz fz!segno!|]
%%scale 0.65
